modules/hawcons-filled/icons/document-cloud.svg

<?xml version="1.0" encoding="UTF-8" standalone="no"?>
<svg width="32px" height="32px" viewBox="0 0 32 32" version="1.1" xmlns="http://www.w3.org/2000/svg" xmlns:xlink="http://www.w3.org/1999/xlink" xmlns:sketch="http://www.bohemiancoding.com/sketch/ns">
    <!-- Generator: Sketch 3.0.3 (7891) - http://www.bohemiancoding.com/sketch -->
    <title>icon 71 document cloud</title>
    <desc>Created with Sketch.</desc>
    <defs></defs>
    <g id="Page-1" stroke="none" stroke-width="1" fill="none" fill-rule="evenodd" sketch:type="MSPage">
        <g id="icon-71-document-cloud" sketch:type="MSArtboardGroup" fill="#929292">
            <path d="M24.248181,18.0089199 C24.331351,18.0030069 24.4153244,18 24.5,18 C25.9287765,18 27.1575946,18.8561232 27.7014494,20.0833647 L27.7014494,20.0833647 C29.0265617,20.4005753 30,21.5860543 30,23 C30,24.6534829 28.652611,26 26.9905224,26 L17.0094776,26 C15.3366311,26 14,24.6568542 14,23 C14,21.6943341 14.8401517,20.5800739 16.0119834,20.1690695 C16.1813969,17.838306 18.1260186,16 20.5,16 C22.0640515,16 23.4417362,16.797931 24.248181,18.0089199 L24.248181,18.0089199 Z M24,27 L24,28.0025781 C24,29.1090746 23.1057238,30 22.0025781,30 L6.99742191,30 C5.89092539,30 5,29.1012878 5,27.9926701 L5,5.00732994 C5,3.89833832 5.8992496,3 7.0085302,3 L17,3 L17,9.00189865 C17,10.1132936 17.8980806,11 19.0059191,11 L24,11 L24,16.257162 C23.0490595,15.4718176 21.8296292,15 20.5,15 C17.8101578,15 15.5713089,16.9309304 15.0939752,19.4822692 C13.8468349,20.1602278 13,21.4832531 13,23 C13,25.209139 14.7888304,27 16.9962027,27 L24,27 L24,27 L24,27 Z M18,3 L18,8.99707067 C18,9.55097324 18.4509752,10 18.990778,10 L24,10 L18,3 L18,3 Z" id="document-cloud" sketch:type="MSShapeGroup"></path>
        </g>
    </g>
</svg>

<svg width="32" height="32" viewBox="0 0 32 32" xmlns="http://www.w3.org/2000/svg"><path d="M24.248 18.009a3.5 3.5 0 0 1 3.453 2.074A2.995 2.995 0 0 1 30 23c0 1.653-1.347 3-3.01 3h-9.98a2.998 2.998 0 0 1-.998-5.83 4.5 4.5 0 0 1 8.236-2.161zM24 27v1.003A1.995 1.995 0 0 1 22.003 30H6.997A2 2 0 0 1 5 27.993V5.007C5 3.898 5.9 3 7.009 3H17v6.002c0 1.111.898 1.998 2.006 1.998H24v5.257a5.502 5.502 0 0 0-8.906 3.225A4.003 4.003 0 0 0 13 23c0 2.21 1.789 4 3.996 4H24zM18 3v5.997c0 .554.451 1.003.99 1.003H24l-6-7z" fill="#929292" fill-rule="evenodd"/></svg>
